src/assets/svg/foldin.svg

<svg xmlns="http://www.w3.org/2000/svg" fill="none" viewBox="0 0 30 30"><defs><clipPath id="a"><path fill="#fff" fill-opacity="0" d="M0 0h30v30H0z"/></clipPath></defs><path fill="none" d="M0 0h30v30H0z"/><g fill="currentColor" clip-path="url(#a)"><rect width="5.995" height="2.002" x="17.42" y="12.316" rx="1.001" transform="rotate(137.159 17.42 12.316)"/><rect width="6.003" height="1.99" x="12.959" y="13.729" rx=".995" transform="rotate(40.853 12.96 13.729)"/><path d="m20.1 25.5-10.2.01c-.42 0-.84-.04-1.25-.12-.41-.09-.81-.21-1.2-.37s-.76-.36-1.11-.59a7.5 7.5 0 0 1-.97-.8c-.3-.3-.56-.63-.79-.98a6.6 6.6 0 0 1-.6-1.11 6.4 6.4 0 0 1-.48-2.45v-8.16a6.367 6.367 0 0 1 .48-2.45c.17-.39.36-.76.6-1.11.23-.35.49-.68.79-.98.3-.29.62-.56.97-.79q.525-.36 1.11-.6t1.2-.36c.41-.09.83-.13 1.25-.13l10.2-.01c.42 0 .84.04 1.25.12s.81.21 1.2.37.76.36 1.11.59c.34.24.67.5.96.8.3.3.57.62.8.97s.43.72.59 1.11a6.3 6.3 0 0 1 .49 2.46v8.15a6.274 6.274 0 0 1-.49 2.46c-.16.39-.36.76-.59 1.11s-.5.67-.8.97c-.29.3-.62.56-.96.8-.35.23-.72.43-1.11.59a6.4 6.4 0 0 1-2.45.5M9.9 6.6c-.29 0-.57.03-.85.09q-.405.075-.81.24c-.26.11-.51.25-.74.4q-.36.24-.66.54c-.2.2-.38.42-.53.66a4.473 4.473 0 0 0-.65 1.56c-.05.28-.08.56-.08.84v8.16c0 .28.03.56.08.84.06.28.14.55.25.81.11.27.24.52.4.75.15.24.33.46.53.66q.3.3.66.54a4.1 4.1 0 0 0 1.55.64c.28.06.56.09.85.09l10.2-.01c.28 0 .57-.04.84-.09a4.5 4.5 0 0 0 1.56-.65c.23-.16.45-.34.65-.54s.38-.42.54-.65c.16-.24.29-.49.4-.75q.165-.39.24-.81c.06-.28.09-.56.09-.85v-8.15c0-.28-.03-.57-.09-.85q-.075-.42-.24-.81c-.11-.26-.24-.51-.4-.75-.16-.23-.34-.45-.54-.65s-.42-.38-.65-.54a4.5 4.5 0 0 0-1.56-.65c-.27-.05-.56-.08-.84-.08z"/><path fill-rule="evenodd" d="M8.5 5.51h2.04l.06 18.92H8.55z"/></g></svg>

<svg viewBox="0 0 30 30" fill="none" xmlns="http://www.w3.org/2000/svg" xmlns:xlink="http://www.w3.org/1999/xlink">
  <defs>
    <clipPath id="clip1382_20239">
      <rect id="折叠边栏0730" width="30.000000" height="30.000000" fill="white" fill-opacity="0"></rect>
    </clipPath>
  </defs>
  <rect id="折叠边栏0730" width="30.000000" height="30.000000" fill="#FFFFFF" fill-opacity="0"></rect>
  <g clip-path="url(#clip1382_20239)">
    <rect
      id="rect"
      x="17.420410"
      y="12.316406"
      rx="1.000947"
      width="5.995172"
      height="2.001895"
      transform="rotate(137.159 17.420410 12.316406)"
      fill="currentColor"
      fill-opacity="1.000000"
    ></rect>
    <rect
      id="rect"
      x="12.959473"
      y="13.728516"
      rx="0.995190"
      width="6.002943"
      height="1.990380"
      transform="rotate(40.853 12.959473 13.728516)"
      fill="currentColor"
      fill-opacity="1.000000"
    ></rect>
    <path
      id="path"
      d="M20.1 25.5L9.9 25.51C9.48 25.51 9.06 25.47 8.65 25.39C8.24 25.3 7.84 25.18 7.45 25.02C7.06 24.86 6.69 24.66 6.34 24.43C5.99 24.19 5.67 23.92 5.37 23.63C5.07 23.33 4.81 23 4.58 22.65C4.34 22.3 4.15 21.93 3.98 21.54C3.82 21.15 3.7 20.75 3.62 20.34C3.54 19.93 3.5 19.51 3.5 19.09L3.5 10.93C3.5 10.51 3.54 10.1 3.62 9.68C3.7 9.27 3.82 8.87 3.98 8.48C4.15 8.09 4.34 7.72 4.58 7.37C4.81 7.02 5.07 6.69 5.37 6.39C5.67 6.1 5.99 5.83 6.34 5.6C6.69 5.36 7.06 5.16 7.45 5C7.84 4.84 8.24 4.72 8.65 4.64C9.06 4.55 9.48 4.51 9.9 4.51L20.1 4.5C20.52 4.5 20.94 4.54 21.35 4.62C21.76 4.7 22.16 4.83 22.55 4.99C22.94 5.15 23.31 5.35 23.66 5.58C24 5.82 24.33 6.08 24.62 6.38C24.92 6.68 25.19 7 25.42 7.35C25.65 7.7 25.85 8.07 26.01 8.46C26.17 8.85 26.3 9.25 26.38 9.67C26.46 10.08 26.5 10.5 26.5 10.92L26.5 19.07C26.5 19.5 26.46 19.91 26.38 20.32C26.3 20.74 26.17 21.14 26.01 21.53C25.85 21.92 25.65 22.29 25.42 22.64C25.19 22.99 24.92 23.31 24.62 23.61C24.33 23.91 24 24.17 23.66 24.41C23.31 24.64 22.94 24.84 22.55 25C22.16 25.16 21.76 25.29 21.35 25.37C20.94 25.45 20.52 25.5 20.1 25.5ZM9.9 6.6C9.61 6.6 9.33 6.63 9.05 6.69C8.78 6.74 8.51 6.82 8.24 6.93C7.98 7.04 7.73 7.18 7.5 7.33C7.26 7.49 7.04 7.67 6.84 7.87C6.64 8.07 6.46 8.29 6.31 8.53C6.15 8.77 6.02 9.01 5.91 9.28C5.8 9.54 5.72 9.81 5.66 10.09C5.61 10.37 5.58 10.65 5.58 10.93L5.58 19.09C5.58 19.37 5.61 19.65 5.66 19.93C5.72 20.21 5.8 20.48 5.91 20.74C6.02 21.01 6.15 21.26 6.31 21.49C6.46 21.73 6.64 21.95 6.84 22.15C7.04 22.35 7.26 22.53 7.5 22.69C7.73 22.85 7.98 22.98 8.24 23.09C8.51 23.2 8.78 23.28 9.05 23.33C9.33 23.39 9.61 23.42 9.9 23.42L20.1 23.41C20.38 23.41 20.67 23.37 20.94 23.32C21.22 23.26 21.49 23.18 21.75 23.07C22.01 22.96 22.26 22.83 22.5 22.67C22.73 22.51 22.95 22.33 23.15 22.13C23.35 21.93 23.53 21.71 23.69 21.48C23.85 21.24 23.98 20.99 24.09 20.73C24.2 20.47 24.28 20.2 24.33 19.92C24.39 19.64 24.42 19.36 24.42 19.07L24.42 10.92C24.42 10.64 24.39 10.35 24.33 10.07C24.28 9.79 24.2 9.52 24.09 9.26C23.98 9 23.85 8.75 23.69 8.51C23.53 8.28 23.35 8.06 23.15 7.86C22.95 7.66 22.73 7.48 22.5 7.32C22.26 7.16 22.01 7.03 21.75 6.92C21.49 6.81 21.22 6.73 20.94 6.67C20.67 6.62 20.38 6.59 20.1 6.59L9.9 6.6Z"
      fill="currentColor"
      fill-opacity="1.000000"
      fill-rule="nonzero"
    ></path>
    <path
      id="rect"
      d="M8.5 5.51L10.54 5.51L10.6 24.43L8.55 24.43L8.5 5.51Z"
      fill="currentColor"
      fill-opacity="1.000000"
      fill-rule="evenodd"
    ></path>
  </g>
</svg>
